assets/Folded hands/Default/Flat/folded_hands_flat_default.svg

<svg width="32" height="32" viewBox="0 0 32 32" fill="none" xmlns="http://www.w3.org/2000/svg">
<path d="M8.35938 15.4375C9.03794 14.849 10.4264 13.6406 10.5517 13.5156C10.7083 13.3594 11.0528 12.7812 11.0528 12.1562V4.39062C11.0528 3.59375 11.4944 2.01562 13.1981 2.01562C15.0864 2.01562 15.4403 3.28102 15.4922 4.12646C15.5441 3.28102 15.898 2.01562 17.7863 2.01562C19.49 2.01562 19.9316 3.59375 19.9316 4.39062V12.1562C19.9316 12.7812 20.2761 13.3594 20.4327 13.5156C20.558 13.6406 21.9464 14.849 22.625 15.4375L16.7058 23.5625C15.8414 23.2711 15.5452 22.4952 15.4922 22.0707C15.4392 22.4952 15.143 23.2711 14.2786 23.5625L8.35938 15.4375Z" fill="#D67D00"/>
<path d="M11.0528 4.74717C11.5365 4.30874 12.2203 4 13.1496 4C13.9195 4 14.5212 4.15494 14.9844 4.41073V2.6938C14.6479 2.30225 14.0968 2.01562 13.1981 2.01562C11.4944 2.01562 11.0528 3.59375 11.0528 4.39062V4.74717Z" fill="#F59F00"/>
<path d="M15.9844 2.71225V4.41073C16.4475 4.15494 17.0492 4 17.8191 4C18.7522 4 19.4378 4.31125 19.9219 4.75253V5H19.9316V4.39062C19.9316 3.59375 19.49 2.01562 17.7863 2.01562C16.8735 2.01562 16.3193 2.31128 15.9844 2.71225Z" fill="#F59F00"/>
<path d="M15.9844 23.1052C16.1627 23.2938 16.3983 23.4588 16.7058 23.5625L22.625 15.4375C21.9464 14.849 20.558 13.6406 20.4327 13.5156C20.2761 13.3594 19.9316 12.7812 19.9316 12.1562V7.42188C19.9316 6.625 19.49 5.04688 17.7863 5.04688C16.8735 5.04688 16.3193 5.34253 15.9844 5.7435V23.1052Z" fill="#FFC83D"/>
<path d="M14.9844 5.6938V23.1215C14.808 23.3033 14.5772 23.4618 14.2786 23.5625L8.35938 15.4375C9.03794 14.849 10.4264 13.6406 10.5517 13.5156C10.7083 13.3594 11.0528 12.7812 11.0528 12.1562V7.39062C11.0528 6.59375 11.4944 5.01562 13.1981 5.01562C14.0968 5.01562 14.6479 5.30225 14.9844 5.6938Z" fill="#FFC83D"/>
<path d="M15.4922 22.0707C15.4922 22.0707 15.4922 22.0707 15.4922 22.0707Z" fill="#FFC83D"/>
<path d="M7 16.4687V29.5469C7 29.9531 7.35893 30.1991 7.88281 29.7734C8.09665 29.5997 9.72927 28.222 11.3841 26.8255C13.1001 25.3775 14.8401 23.9092 15.0469 23.7422C15.4531 23.414 15.2891 23.0937 15.0469 22.7969C14.9234 22.6455 13.3171 20.731 11.7505 18.8639C10.2448 17.0692 8.77572 15.3183 8.69531 15.2187C8.53125 15.0156 8.32031 15.0078 8.07031 15.164C7.8776 15.3073 7.45937 15.6219 7.32812 15.7344C7.16406 15.875 7 16.1172 7 16.4687Z" fill="#803BFF"/>
<path d="M24 16.4687V29.5469C24 29.9531 23.6411 30.1991 23.1172 29.7734C22.9033 29.5997 21.2707 28.222 19.6158 26.8255C17.8998 25.3775 16.1599 23.9092 15.9531 23.7422C15.5469 23.414 15.7109 23.0937 15.9531 22.7969C16.0766 22.6455 17.6829 20.731 19.2495 18.8639C20.7552 17.0692 22.2243 15.3183 22.3047 15.2187C22.4687 15.0156 22.6797 15.0078 22.9297 15.164C23.1224 15.3073 23.5406 15.6219 23.6719 15.7344C23.8359 15.875 24 16.1172 24 16.4687Z" fill="#803BFF"/>
</svg>

<svg xmlns="http://www.w3.org/2000/svg" width="32" height="32" fill="none"><path fill="#D67D00" d="M8.36 15.438a169.09 169.09 0 0 0 2.192-1.922c.156-.157.5-.735.5-1.36V4.391c0-.797.442-2.375 2.146-2.375 1.888 0 2.242 1.265 2.294 2.11.052-.845.406-2.11 2.294-2.11 1.704 0 2.146 1.578 2.146 2.375v7.765c0 .625.344 1.203.5 1.36.126.125 1.514 1.333 2.193 1.921l-5.92 8.126c-.864-.292-1.16-1.068-1.213-1.492-.053.424-.349 1.2-1.213 1.491l-5.92-8.125Z"/><path fill="#F59F00" d="M11.053 4.747C11.536 4.31 12.22 4 13.15 4c.77 0 1.371.155 1.834.41V2.695c-.336-.392-.887-.678-1.786-.678-1.704 0-2.145 1.578-2.145 2.375v.356ZM15.984 2.712v1.699C16.448 4.155 17.05 4 17.82 4c.933 0 1.619.311 2.103.753V5h.01v-.61c0-.796-.442-2.374-2.146-2.374-.913 0-1.467.295-1.802.696Z"/><path fill="#FFC83D" d="M15.984 23.105c.179.189.414.354.722.457l5.919-8.125a168.779 168.779 0 0 1-2.192-1.921c-.157-.157-.501-.735-.501-1.36V7.422c0-.797-.442-2.375-2.146-2.375-.913 0-1.467.296-1.802.697v17.361ZM14.984 5.694v17.428c-.176.181-.407.34-.705.44l-5.92-8.125a169.09 169.09 0 0 0 2.193-1.921c.156-.157.5-.735.5-1.36V7.391c0-.797.442-2.375 2.146-2.375.899 0 1.45.286 1.786.678ZM15.492 22.07Z"/><path fill="#803BFF" d="M7 16.469v13.078c0 .406.359.652.883.226a863.02 863.02 0 0 0 3.501-2.947c1.716-1.448 3.456-2.917 3.663-3.084.406-.328.242-.648 0-.945-.124-.152-1.73-2.066-3.296-3.933-1.506-1.795-2.975-3.546-3.056-3.645-.164-.203-.375-.211-.625-.055-.192.143-.61.458-.742.57A.947.947 0 0 0 7 16.47ZM24 16.469v13.078c0 .406-.359.652-.883.226-.214-.173-1.846-1.551-3.501-2.947-1.716-1.448-3.456-2.917-3.663-3.084-.406-.328-.242-.648 0-.945.124-.152 1.73-2.066 3.297-3.933 1.505-1.795 2.974-3.546 3.055-3.645.164-.203.375-.211.625-.055.192.143.61.458.742.57.164.141.328.383.328.735Z"/></svg>
